X: 1
T: Chuckling In The Bunk
M: 4/4
L: 1/8
R: hornpipe
K: Dmaj
AG|:FAdc dAFA|Ggfe d2ef|gecA ^GA=GE|DEFB A2AG|
FAdF Ggec|defb a2ag|fdAF Ggec|1 d2dc d2AG:|2 d2dc d2fg||
|:a2a^g a2ga|b2a2 abag|fedc defg|a^gab a2a=g|
fdAf ecAF|GA (3Bcd A3g|fdAF Ggec|1 d2dc d2fg:|2 d2dc d2AG||
